assets/images/logoText.svg

<?xml version="1.0" encoding="UTF-8"?>
<svg width="95px" height="16px" viewBox="0 0 95 16" version="1.1" xmlns="http://www.w3.org/2000/svg" xmlns:xlink="http://www.w3.org/1999/xlink">
】    <g id="页面-1" stroke="none" stroke-width="1" fill="none" fill-rule="evenodd">
        <g id="编组备份" fill="currentColor">
            <path d="M41.3238506,0.000463734512 C41.9151487,0.000463734512 42.4984409,0.0619085574 43.0531404,0.183638867 C43.6147021,0.307687849 44.1350902,0.473472937 44.5994366,0.672878777 C45.0740763,0.878081298 45.5029676,1.10415187 45.8758172,1.34645316 C46.0473737,1.45890877 46.2086368,1.57136439 46.3584629,1.68613869 L46.3584629,1.68613869 L44.171689,3.70454315 C43.89148,3.47035722 43.5689537,3.26863271 43.2063976,3.10284762 C42.6459796,2.84431563 41.9586097,2.71446997 41.1637311,2.71446997 C40.2258888,2.71446997 39.5053514,2.87329904 38.962089,3.2013912 C38.3284736,3.5816535 38.007091,4.04886602 38.007091,4.5914354 C38.007091,5.17110354 38.3673597,5.66845881 39.0776037,6.07190783 C39.6894887,6.41854938 40.5804389,6.5854938 41.8042089,6.5854938 C42.9250448,6.5854938 43.8788991,6.71997681 44.6383227,6.98314615 C45.3817343,7.24167814 45.9856133,7.58600101 46.4362351,8.00799942 C46.8880007,8.43115716 47.2082395,8.89489167 47.4141074,9.42007101 C47.6234063,9.95220636 47.7286277,10.5110064 47.7286277,11.0837186 C47.7286277,11.6726614 47.6142566,12.2650822 47.3900895,12.843591 C47.1716408,13.4070285 46.8090847,13.9275705 46.3127144,14.3901456 C45.8071945,14.8596768 45.126687,15.2492138 44.2917785,15.5460039 C43.4397144,15.8474313 42.3794951,16.0004637 41.1408569,16.0004637 C40.5495588,16.0004637 39.9662666,15.9378596 39.4104234,15.8161293 C38.8500054,15.6920803 38.3296173,15.5262952 37.8641272,15.3268894 C37.395206,15.1263242 36.9663147,14.8990943 36.5888904,14.653315 C36.4161901,14.5420187 36.254927,14.4284037 36.1062447,14.3136294 L36.1062447,14.3136294 L38.2918748,12.295225 C38.5720838,12.5305702 38.8946101,12.7322948 39.2571662,12.8980798 C39.8141531,13.1554525 40.5026667,13.2864575 41.3009764,13.2864575 C42.2388187,13.2864575 42.9582124,13.1264691 43.5026185,12.7995363 C44.1362339,12.4181146 44.4576165,11.9497428 44.4576165,11.4094921 C44.4576165,10.8309833 44.0973478,10.3324687 43.3859601,9.9278603 C42.7740751,9.58121875 41.8831249,9.41427433 40.6604987,9.41427433 C39.5236507,9.41427433 38.5617904,9.28095066 37.8035106,9.01662198 C37.0566678,8.75693066 36.4516451,8.41724513 36.0010233,7.99988407 C35.5606949,7.5952757 35.2370249,7.12342584 35.0414505,6.59940584 C34.8390138,6.05915513 34.7360798,5.50151438 34.7360798,4.94039562 C34.7360798,4.35029346 34.8504509,3.75323527 35.0746181,3.16661112 C35.2930667,2.59621767 35.6556228,2.07219767 36.1519931,1.60962249 C36.6563693,1.1400913 37.3357331,0.751713644 38.172929,0.45376422 C39.0249931,0.153496123 40.0840687,0.000463734512 41.3238506,0.000463734512 Z M57.7020093,5.32907052e-14 C58.8617315,5.32907052e-14 59.9333879,0.182015796 60.8872422,0.543728715 C61.6283664,0.824288095 62.2974369,1.20455039 62.8818728,1.67871893 L62.8818728,1.67871893 L60.6756558,3.71451344 C60.3496984,3.45134411 59.9859986,3.23338888 59.5879874,3.06992247 C58.4328401,2.59227592 56.8247836,2.59575393 55.678786,3.09774654 C55.0897752,3.35627853 54.585399,3.73190349 54.1782382,4.21534671 C53.7790833,4.69067459 53.4737127,5.26106804 53.2689886,5.91029636 C53.0688393,6.5444533 52.9670491,7.24701109 52.9670491,8.00057967 C52.9670491,9.55640896 53.3742099,10.8339975 54.1770945,11.7950873 C55.003997,12.7851605 56.1740125,13.2859938 57.6562609,13.2859938 C58.421403,13.2859938 59.1144914,13.1491921 59.7183704,12.8779074 C60.1175253,12.6970509 60.4755065,12.4686617 60.7877394,12.193899 L60.7877394,12.193899 L62.7183222,14.4464894 C62.1418923,14.8858778 61.4854026,15.2394754 60.7591467,15.4991667 C58.8457195,16.1843345 56.3124014,16.1657851 54.4332856,15.4249692 C53.4748564,15.0470256 52.6456665,14.5021375 51.9663027,13.8065358 C51.2857951,13.1097747 50.7505387,12.2622998 50.3776892,11.290776 C50.0014086,10.3134555 49.810409,9.19817405 49.810409,7.97739294 C49.810409,6.77168321 50.0014086,5.66451706 50.3776892,4.68603724 C50.7505387,3.71567278 51.2846514,2.87515397 51.9640153,2.18418955 C52.6433791,1.4955438 53.4771439,0.954133758 54.4424353,0.576190131 C55.4180201,0.193609159 56.5148381,5.32907052e-14 57.7020093,5.32907052e-14 Z M12.4206927,0.464777915 L12.4206927,3.17762481 L3.24699325,3.17762481 L3.24699325,6.40057967 L11.5240239,6.40057967 L8.60641922,9.11342656 L3.27101116,9.11342656 L3.27101116,15.5361496 L4.4408921e-14,15.5361496 L4.4408921e-14,0.464777915 L12.4206927,0.464777915 Z M18.1609742,0.464893848 L18.1609742,15.5362655 L14.9128372,15.5362655 L14.9128372,0.464893848 L18.1609742,0.464893848 Z M24.7718479,0.465125716 L24.7718479,12.8224911 L33.9215294,12.8224911 L33.9215294,15.535338 L21.5008367,15.535338 L21.5008367,3.53968553 L24.7718479,0.465125716 Z M74.1398697,0.464430114 L78.3247053,15.5358018 L74.9381795,15.5358018 L73.657224,10.9216434 L68.4670672,10.9216434 L67.1861117,15.5358018 L63.8201726,15.5358018 L65.83539,8.20879646 L72.9263932,8.20879646 L70.7762181,0.464430114 L74.1398697,0.464430114 Z M83.959308,0.464430114 L91.7296751,11.2624882 L91.7296751,3.55637997 L95.0006862,0.464430114 L95.0006862,15.5358018 L91.5043642,15.5358018 L83.6779553,4.67050214 L83.6779553,15.5358018 L80.4069441,15.5358018 L80.4069441,0.464430114 L83.959308,0.464430114 Z" id="形状结合"></path>
        </g>
    </g>
</svg>

<svg height="16" viewBox="0 0 95 16" width="95" xmlns="http://www.w3.org/2000/svg" xmlns:xlink="http://www.w3.org/1999/xlink"><linearGradient id="a" x1="5.864224%" x2="103.932288%" y1="51.344736%" y2="47.998569%"><stop offset="0" stop-color="#1764ff"/><stop offset=".874426265" stop-color="#16cde5"/><stop offset=".999196491" stop-color="#a2e7a2"/><stop offset="1" stop-color="#abe99e"/></linearGradient><path d="m41.3242-.0004c.591 0 1.174.062 1.729.184.561.124 1.082.289 1.546.489.475.205.904.431 1.277.673.171.113.332.225.482.34l-2.187 2.019c-.28-.235-.602-.436-.965-.602-.56-.259-1.248-.389-2.042-.389-.938 0-1.659.159-2.202.487-.634.381-.955.848-.955 1.39 0 .58.36 1.077 1.07 1.481.612.347 1.503.513 2.727.513 1.121 0 2.075.135 2.834.398.743.259 1.347.603 1.798 1.025.452.423.772.887.978 1.412.209.532.314 1.091.314 1.664 0 .589-.114 1.181-.338 1.76-.219.563-.581 1.084-1.077 1.546-.506.47-1.187.859-2.021 1.156-.853.301-1.913.454-3.151.454-.592 0-1.175-.062-1.731-.184-.56-.124-1.081-.29-1.546-.489-.469-.201-.898-.428-1.275-.674-.173-.111-.77-.469-.919-.584l2.186-2.019c.28.236 1.038.682 1.401.848.557.257 1.245.388 2.044.388.938 0 1.657-.16 2.201-.486.634-.382.955-.85.955-1.391 0-.578-.36-1.077-1.071-1.481-.612-.347-1.503-.514-2.726-.514-1.137 0-2.098-.133-2.857-.397-.747-.26-1.352-.6-1.802-1.017-.441-.405-.764-.877-.96-1.401-.202-.54-.305-1.098-.305-1.659 0-.59.114-1.187.338-1.773.219-.571.581-1.095 1.078-1.557.504-.47 1.184-.858 2.021-1.156.852-.301 1.911-.454 3.151-.454zm16.378.0003c1.16 0 2.231.182 3.185.543.741.281 1.41.661 1.995 1.135l-2.207 2.036c-.326-.263-.689-.481-1.087-.644-1.155-.478-2.763-.475-3.909.027-.589.259-1.094.635-1.501 1.118-.399.475-.705 1.046-.909 1.695-.2.634-.302 1.337-.302 2.09 0 1.556.407 2.834 1.21 3.795.827.99 1.997 1.491 3.479 1.491.765 0 1.458-.137 2.062-.408.399-.181.757-.41 1.069-.684l1.931 2.252c-.576.44-1.233.793-1.959 1.053-1.914.685-4.447.666-6.326-.074-.958-.378-1.788-.923-2.467-1.619-.68-.697-1.216-1.544-1.589-2.516-.376-.977-.567-2.092-.567-3.313 0-1.206.191-2.313.567-3.291.373-.971.907-1.811 1.587-2.502.679-.689 1.513-1.23 2.478-1.608.976-.383 2.073-.576 3.26-.576zm-45.2812.4648v2.712h-9.174v3.223h8.277l-2.918 2.713h-5.335v6.423h-3.271v-15.071zm5.7398.0001v15.071h-3.248v-11.997zm6.6111-.0001v12.357h9.15v2.713h-12.421v-11.995zm49.3683-.0007 4.184 15.071h-3.386l-1.281-4.614h-5.17l-1.281 4.614h-3.386l2.446-8.985 4.217-3.023-1.265 4.681h3.708l-2.15-7.744zm9.8195-.0001 7.77 10.798v-7.706l3.271-3.092v15.071h-3.496l-7.827-10.865v10.865h-3.271v-15.071z" fill="url(#a)" fill-rule="evenodd"/></svg>
